X: 09054
T: JOE'S JIG
C: Bob McQuillen 22 Apr 92
B: Bob's Note Book 9 #54
R: hornpipe, reel
Z: 2018 John Chambers <jc:trillian.mit.edu>
M: 6/8
L: 1/8
K: G
D \
| GBd cAF | GBG D2D | GEG DGB | dBG AFD |
| GBd cAF | GBG D2B | dBG ABA | G3- G2 :|
|: E \
| DGB GBd | edB d2d | Bdg dBG | BdB AGE |
| DGB GBd | edB d2d | gdB AGF | G3- G2 :|
%%begintext align
%% Joe Cummings was a nice kid when I had him
%% in class years ago. He's still nice, and today his Transcript Press
%% is where I go to get these little books printed. Pretty neat, don't you
%% think? I'm so happy with what he does that I wrote him a tune of his
%% own. If he ever shows up at one of our dances, we'll have to play it
%% for him. Thanks for such excellent work, Joe - I really appreciate it!
%%endtext

%%sep 1 1 500

%%sep 1 1 500

